X:119
T:Merrily Kissed the Quaker + (j)
B:NFID.183a2
119merr_k
S:DOD
L:1/8
M:6/8
R:jig
Q:320
K:D
P:version 1
A|def A2f|g2f e3|def A2A|B3 d3|
def A2f|a>gf e2c|d>ef ecA|1 g3 d2:|2 B3 d2||
A|def A2f|b2f a2f|def a2g|f3 a2f|
def a2f|b2f a2f|def ecA|B3 d3|
def A2f|b2f a2f|def a2g|f3a2a|
b2g efg|a2f d2A|def [e2A2]A B3 d2||
= = =
P:version 2
A|def A2A|BGB A2A|def A2g|f2a gfe|
def A2A|BGB A2A|fed faf|e3d2:|
A|def f2a|f2a fed|def faf|efe ecA|
def f2a|f2a f>ed|fed faf|e3d2:|

%%%

